X:766
T:The Twenty-ninth of May
C:John Playford, 1686
S:Colin Hume's website,  colinhume.com  - chords can also be printed below the stave.
N:Also for the dance "Bright and Beautiful" by Colin Hume.
Q:1/2=120
M:C|
L:1/8
K:D
P:A
[| "D"a2f2 "G"g2f2 | "A"edcB "D"A2f2 | "G"g2B2 "A7"c3B/c/ | "D"d2A2 F2ED |\
"D"a2f2 "G"g2f2 | "E7/G#"edcB "A"A2f2 | "Em"g2B2 "A7"c3B/c/ | "D"d2A2 F2ED |
P:B
"D"F2A2- A2GF | "G"G2B2-B2 B2 | "A"cde2 cde2 | "E7"c2Bc "A"A2de |\
| "D"f2ef "Bm"d2ef | "Em"g2fg "A7"e2fg | "D"a2"G"B2 "A7"c3B/c/ | "D"d2A2 F2ED |]

